icons/16px/contentSearch.svg

<svg width="16" height="16" viewBox="0 0 16 16" fill="none" xmlns="http://www.w3.org/2000/svg">
<path fill-rule="evenodd" clip-rule="evenodd" d="M5.40186 3.01177C5.60669 3.01177 5.77463 2.85543 5.82832 2.65777C6.08773 1.70256 6.96174 1 8 1C9.03826 1 9.91227 1.70256 10.1717 2.65777C10.2254 2.85543 10.3933 3.01177 10.5981 3.01177H12.5C13.3284 3.01177 14 3.68334 14 4.51177V8.00688H12.5V4.51029H11V5.60883C11 5.82975 10.8209 6.00883 10.6 6.00883H5.4C5.17909 6.00883 5 5.82974 5 5.60883V4.51029H3.5V13.5015H7V15.0001L3.5 15.0001C2.67157 15.0001 2 14.3285 2 13.5001V4.51177C2 3.68334 2.67157 3.01177 3.5 3.01177H5.40186ZM8.75 3.26146C8.75 3.67527 8.41421 4.01073 8 4.01073C7.58579 4.01073 7.25 3.67527 7.25 3.26146C7.25 2.84765 7.58579 2.5122 8 2.5122C8.41421 2.5122 8.75 2.84765 8.75 3.26146Z" fill="black"/>
<path fill-rule="evenodd" clip-rule="evenodd" d="M10 14.001C10.5564 14.001 11.0773 13.8497 11.524 13.586L12.8173 14.8781C12.9735 15.0342 13.2268 15.0342 13.383 14.8781L13.878 14.3836C14.0342 14.2276 14.0342 13.9745 13.878 13.8185L12.5846 12.5264C12.8486 12.0802 13 11.5597 13 11.0039C13 9.34867 11.6569 8.00683 10 8.00683C8.34315 8.00683 7 9.34867 7 11.0039C7 12.6591 8.34315 14.001 10 14.001ZM10 12.5024C10.8284 12.5024 11.5 11.8315 11.5 11.0039C11.5 10.1763 10.8284 9.50536 10 9.50536C9.17157 9.50536 8.5 10.1763 8.5 11.0039C8.5 11.8315 9.17157 12.5024 10 12.5024Z" fill="black"/>
</svg>

<?xml version="1.0" encoding="UTF-8"?>
<svg id="Layer_1" data-name="Layer 1" xmlns="http://www.w3.org/2000/svg" viewBox="0 0 16 16">
  <defs>
    <style>
      .cls-1 {
        fill-rule: evenodd;
        stroke-width: 0px;
      }
    </style>
  </defs>
  <path class="cls-1" d="m5.4019,3.0118c.2048,0,.3728-.1563.4265-.354.2594-.9552,1.1334-1.6578,2.1717-1.6578s1.9123.7026,2.1717,1.6578c.0537.1977.2216.354.4264.354h1.9019c.8284,0,1.5.6716,1.5,1.5v3.4951h-1.5v-3.4966h-1.5v1.0985c0,.2209-.1791.4-.4.4h-5.2c-.2209,0-.4-.1791-.4-.4v-1.0985h-1.5v8.9912h3.5v1.4986h-3.5c-.8284,0-1.5-.6716-1.5-1.5V4.5118c0-.8284.6716-1.5,1.5-1.5h1.9019Zm3.3481.2497c0,.4138-.3358.7493-.75.7493s-.75-.3355-.75-.7493.3358-.7493.75-.7493.75.3354.75.7493Zm1.25,10.7395c.5564,0,1.0773-.1513,1.524-.415l1.2933,1.2921c.1562.1561.4095.1561.5657,0l.495-.4945c.1562-.156.1562-.4091,0-.5651l-1.2934-1.2921c.264-.4462.4154-.9667.4154-1.5225,0-1.6552-1.3431-2.9971-3-2.9971s-3,1.3418-3,2.9971,1.3432,2.9971,3,2.9971Zm0-1.4986c.8284,0,1.5-.6709,1.5-1.4985s-.6716-1.4985-1.5-1.4985-1.5.6709-1.5,1.4985.6716,1.4985,1.5,1.4985Z"/>
</svg>
